actions/symbolic/document-import-symbolic.svg

<?xml version="1.0" encoding="UTF-8" standalone="no"?>
<svg
   height="16"
   width="16"
   version="1.1"
   id="svg11"
   sodipodi:docname="document-import-symbolic.svg"
   inkscape:version="1.2.2 (b0a8486541, 2022-12-01)"
   xmlns:inkscape="http://www.inkscape.org/namespaces/inkscape"
   xmlns:sodipodi="http://sodipodi.sourceforge.net/DTD/sodipodi-0.dtd"
   xmlns="http://www.w3.org/2000/svg"
   xmlns:svg="http://www.w3.org/2000/svg">
  <sodipodi:namedview
     id="namedview5"
     pagecolor="#ffffff"
     bordercolor="#000000"
     borderopacity="0.25"
     inkscape:showpageshadow="2"
     inkscape:pageopacity="0.0"
     inkscape:pagecheckerboard="0"
     inkscape:deskcolor="#d1d1d1"
     showgrid="false"
     inkscape:zoom="64"
     inkscape:cx="11.882813"
     inkscape:cy="9.84375"
     inkscape:window-width="1278"
     inkscape:window-height="1005"
     inkscape:window-x="577"
     inkscape:window-y="13"
     inkscape:window-maximized="0"
     inkscape:current-layer="svg11" />
  <defs
     id="defs15" />
  <path
     id="path944"
     style="fill:#555761;stroke:none;stroke-width:1;stroke-linecap:round;-inkscape-stroke:none;stop-color:#000000"
     d="M 10.429688,5.000633 C 10.697855,4.9871225 10.990934,5.1913806 11,5.471265 v 1.5290656 h 3.5 c 0.260999,0 0.5,0.237965 0.5,0.4999244 v 0.4999244 0.4999245 c 0,0.2619594 -0.239001,0.4999244 -0.5,0.4999244 H 11 v 1.5290657 c -0.01209,0.37318 -0.528235,0.611453 -0.818359,0.378849 L 7.1601562,8.3790284 C 7.05346,8.2753041 7,8.1379405 7,8.0001794 7,7.8624184 7.05346,7.7250557 7.1601562,7.6213305 L 10.181641,5.092416 c 0.07253,-0.058151 0.158657,-0.08728 0.248047,-0.091783 z"
     sodipodi:nodetypes="sccsscssccccsccs" />
  <path
     style="fill:#555761;stroke:none;stroke-width:1;stroke-linecap:round;-inkscape-stroke:none;stop-color:#000000"
     d="M 4,2 C 2.89201,2 2,2.89201 2,4 v 8 c 0,1.107991 0.89201,2 2,2 h 8 c 1.107991,0 2,-0.892009 2,-2 v -2 h -1 v 2 c 0,0.553992 -0.446009,1 -1,1 H 4 C 3.446005,13 3,12.553992 3,12 V 4 C 3,3.446005 3.446005,3 4,3 h 8 c 0.553993,0 1,0.446007 1,1 v 2 h 1 V 4 C 14,2.892009 13.10799,2 12,2 Z"
     id="rect322" />
</svg>

<svg
        xmlns='http://www.w3.org/2000/svg'
        xmlns:svg='http://www.w3.org/2000/svg'
        id='svg11'
        width='16'
        height='16'>
  <path
          id='path944'
          fill='url(#gpa:foreground) #555761'
          fill-opacity='1'
          fill-rule='nonzero'
          stroke='none'
          stroke-width='1'
          stroke-linecap='round'
          d='M 10.4297 5.00063 C 10.6979 4.98712, 10.9909 5.19138, 11 5.47126 L 11 7.00033 L 14.5 7.00033 C 14.761 7.00033, 15 7.2383, 15 7.50026 L 15 8.00018 L 15 8.5001 C 15 8.76206, 14.761 9.00003, 14.5 9.00003 L 11 9.00003 L 11 10.5291 C 10.9879 10.9023, 10.4718 11.1405, 10.1816 10.9079 L 7.16016 8.37903 C 7.05346 8.2753, 7 8.13794, 7 8.00018 C 7 7.86242, 7.05346 7.72506, 7.16016 7.62133 L 10.1816 5.09242 C 10.2542 5.03427, 10.3403 5.00514, 10.4297 5.00063 Z'
          class="foreground">
  </path>
  <path
          id='rect322'
          fill='url(#gpa:foreground) #555761'
          fill-opacity='1'
          fill-rule='nonzero'
          stroke='none'
          stroke-width='1'
          stroke-linecap='round'
          d='M 4 2 C 2.89201 2, 2 2.89201, 2 4 L 2 12 C 2 13.108, 2.89201 14, 4 14 L 12 14 C 13.108 14, 14 13.108, 14 12 L 14 10 L 13 10 L 13 12 C 13 12.554, 12.554 13, 12 13 L 4 13 C 3.44601 13, 3 12.554, 3 12 L 3 4 C 3 3.44601, 3.44601 3, 4 3 L 12 3 C 12.554 3, 13 3.44601, 13 4 L 13 6 L 14 6 L 14 4 C 14 2.89201, 13.108 2, 12 2 Z'
          class="foreground">
  </path>
</svg>
